!!!!SEGMENT: pl-kk--kk-i-2--012-004_anonim--missa-puer-natus-quattuor-paribus-sanctus.krn
!!!cenid: 16xx:1624
!!!COM: Anonim
!!!COM-rismid: pe30004985
!!!CDT:
!!!CNT:
!!!OPR: Missa Puer natus quattuor paribus
!!!OTL: Sanctus
!!!OMV: 004
!!!PDT:
!!!AGN: Sacred; Mass
!!!SMS-siglum: PL-Kk
!!!SMS-shelfmark: Kk.I.2
!!!SMS-shelfwork: 012-004 M
!!!NIFC-rismid: 300258028
!!!URL-scan: http://repozytorium.nifc.pl/skany/pl-kk-nut--i-2
!!!ONB-nifc: Części mszy: Kyrie, Gloria, Credo, Sanctus, Agnus Dei; skany: C: 0004; A: 0104; T: 0208; B: 0308;
!!!key: a:dor
**kern	**text	**kern	**text	**kern	**text	**kern	**text
*part4	*part4	*part3	*part3	*part2	*part2	*part1	*part1
*staff4	*staff4	*staff3	*staff3	*staff2	*staff2	*staff1	*staff1
*I"BASVS	*	*I"TENOR	*	*I"ALTVS	*	*I"DISCANTVS	*
*I'B	*	*I'T	*	*I'A	*	*I'S	*
*ICvox	*	*ICvox	*	*ICvox	*	*ICvox	*
*Ibass	*	*Itenor	*	*Ialto	*	*Isoprn	*
*clefF4	*	*clefC4	*	*clefC4	*	*clefC3	*
*a:dor	*	*a:dor	*	*a:dor	*	*a:dor	*
*k[]	*	*k[]	*	*k[]	*	*k[]	*
*M2/1	*	*M2/1	*	*M2/1	*	*M2/1	*
*met(c|)	*	*met(c|)	*	*met(c|)	*	*met(c|)	*
=1	=1	=1	=1	=1	=1	=1	=1
*	*	*	*	*2\right	*	*2\right	*
!LO:TX:a:i:t=ad [....] Puer nat(us) Spectat	!	!LO:TX:a:i:t=ad [....] Puer nat(us) Spectat.	!	!LO:TX:a:i:t=ad Miſsam Puer natus Spectat.	!	!LO:TX:a:i:t=ad [....] Puer nat(us) Spectat.	!
1Gn	San-	0d	San-	2r	.	1r	.
!	!	!	!	!LO:TX:t=P:problem:kreska pseudotaktowa	!	!	!
.	.	.	.	(2.G/	San-	.	.
2.GG/	.	.	.	.	.	2r	.
.	.	.	.	4A/)	.	.	.
.	.	.	.	4B\	.	2.d\	San-
!LO:TX:t=P:problem:kreska pseudotaktowa	!	!	!	!LO:TX:t=P:problem:kreska pseudotaktowa	!	!	!
4AA/	.	.	.	4c\	.	.	.
=2	=2	=2	=2	=2	=2	=2	=2
!	!	!LO:TX:t=P:problem:kreska pseudotaktowa	!	!	!	!	!
4BB/	.	1d	-ctus	2.d\	.	.	.
4C/	.	.	.	.	.	4e\	.
2.D/	.	.	.	.	.	4f\	.
!	!	!	!	!	!	!LO:TX:t=P:problem:kreska pseudotaktowa	!
.	.	.	.	8c\L	.	4g\	.
!	!	!	!	!LO:TX:t=P:problem:kreska pseudotaktowa	!	!	!
.	.	.	.	8B\J	.	.	.
.	.	1r	.	1.A	.	2.a\	.
8C/L	.	.	.	.	.	.	.
8BB/J	.	.	.	.	.	.	.
4AA/	.	.	.	.	.	.	.
!LO:TX:t=P:problem:kreska pseudotaktowa	!	!	!	!	!	!	!
4BB/	-ct(us)	.	.	.	.	8g\L	.
.	.	.	.	.	.	8f\J	.
=3	=3	=3	=3	=3	=3	=3	=3
2.C/	San-	2r	.	.	.	4e\	.
.	.	.	.	.	.	4f\	ct(us)
!	!	!	!	!LO:TX:t=P:problem:kreska pseudotaktowa	!	!	!
.	.	2.G/	San-	2c\	-ctus	2.g\	San-
!LO:TX:t=P:problem:kreska pseudotaktowa	!	!	!	!	!	!	!
4D/	.	.	.	.	.	.	.
4E\	.	.	.	2.G/	San-	.	.
4F\	.	4A/	.	.	.	8f\L	.
.	.	.	.	.	.	8e\J	.
!	!	!	!	!	!	!LO:TX:t=P:problem:kreska pseudotaktowa:między nutą a kropką	!
2.G\	.	4Bn\	.	.	.	2.d\	.
!	!	!LO:TX:t=P:problem:kreska pseudotaktowa	!	!LO:TX:t=P:problem:kreska pseudotaktowa	!	!	!
.	.	4c\	.	4A/	.	.	.
=4	=4	=4	=4	=4	=4	=4	=4
.	.	1d	.	4B\	.	.	.
8F\L	.	.	.	4c\	.	4e\	.
8E\J	.	.	.	.	.	.	.
!	!	!	!	!LO:TX:t=P:problem:kreska pseudotaktowa	!	!	!
4D\	.	.	.	2d\	.	4f\	.
!LO:TX:t=P:problem:kreska pseudotaktowa	!	!	!	!	!	!	!
4E\	.	.	.	.	.	4g\	-ct(us)
4F\	.	2d\	-ct(us)	2d\	.	2.a\	San-
4G\	-ct(us)	.	.	.	.	.	.
!	!	!LO:TX:t=P:problem:kreska pseudotaktowa	!	!	!	!	!
2.A\	San-	2r	.	2.c\	.	.	.
.	.	.	.	.	.	8g\L	.
!	!	!	!	!	!	!LO:TX:t=P:problem:kreska pseudotaktowa	!
.	.	.	.	.	.	8f\J	.
=5	=5	=5	=5	=5	=5	=5	=5
.	.	2.c\	San-	.	.	4e\	.
8G\L	.	.	.	8B\L	.	4f\	.
8F\J	.	.	.	8A\J	.	.	.
!LO:TX:t=P:problem:kreska pseudotaktowa	!	!	!	!LO:TX:t=P:problem:kreska pseudotaktowa	!	!	!
2E\	.	.	.	2G/	-ctus	2g\	.
.	.	4B\	.	.	.	.	.
2F\	.	2A/	.	2A/	San-	2f\	.
2G\	.	1G	.	8B\L	.	2d\	.
.	.	.	.	8d\	.	.	.
.	.	.	.	8c\	.	.	.
!	!	!	!	!LO:TX:t=P:problem:kreska pseudotaktowa	!	!	!
.	.	.	.	8B\J	.	.	.
=6	=6	=6	=6	=6	=6	=6	=6
1D	.	.	.	4A/	.	1d	.
.	.	.	.	4B\	.	.	.
.	.	2F#X/	.	2A/	.	.	.
!	!	!LO:TX:t=P:problem:kreska pseudotaktowa	!	!	!	!LO:TX:t=P:problem:kreska pseudotaktowa	!
1GG	-ct(us)	1G	-ct(us)	1G	-ct(u)	1d	-ct(us)
=7	=7	=7	=7	=7	=7	=7	=7
*M3/1	*	*M3/1	*	*M3/1	*	*M3/1	*
1.Gn	Do-	1.d	Do-	1.d	Do-	1.g	Do-
2G\	-mi-	2d\	-mi-	2d\	-mi-	2g\	-mi-
!LO:TX:t=P:problem:kreska pseudotaktowa	!	!LO:TX:t=P:problem:kreska pseudotaktowa	!	!LO:TX:t=P:problem:kreska pseudotaktowa	!	!LO:TX:t=P:problem:kreska pseudotaktowa	!
1G	-n(us)	1Bn	-n(us)	1d	-n(us)	1g	-n(us)
=8	=8	=8	=8	=8	=8	=8	=8
0G	De-	0G	De-	0d	De-	0g	De-
!LO:SIC:v:t=custos G	!	!LO:SIC:v:t=custos d	!	!LO:SIC:v:t=custos d, błędna wysokość	!	!	!
!LO:TX:t=P:problem:kreska pseudotaktowa	!	!LO:TX:t=P:problem:kreska pseudotaktowa	!	!LO:TX:t=P:problem:kreska pseudotaktowa	!	!	!
1G	-us	1B	-us	1d	-(us)	1g	-(us)
!LO:LB:g=original	!	!LO:LB:g=original	!	!LO:LB:g=original	!	!	!
=9	=9	=9	=9	=9	=9	=9	=9
0G	Sab-	0d	Sab-	0B	Sab-	0g	Sab-
1C	-ba-	1e	-ba-	1c	-ba-	1g	-ba-
=10	=10	=10	=10	=10	=10	=10	=10
!LO:TX:t=P:problem:kreska pseudotaktowa	!	!LO:TX:t=P:problem:kreska pseudotaktowa	!	!LO:TX:t=P:problem:kreska pseudotaktowa	!	!LO:TX:t=P:problem:kreska pseudotaktowa	!
0.G	-oth	0.d	-oth	0.B	-oth	0.g	-oth
!	!	!	!	!	!	!LO:LB:g=original	!
=11	=11	=11	=11	=11	=11	=11	=11
*	*ij	*	*ij	*	*ij	*	*ij
1.G	Do-	1.d	Do-	1.B	Do-	1.g	Do-
2G\	-mi-	2d\	-mi-	2B\	-mi-	2g\	-mi-
!	!	!LO:TX:t=P:problem:kreska pseudotaktowa	!	!	!	!LO:TX:t=P:problem:kreska pseudotaktowa	!
1A	-n(us)	1c	-n(us)	1c	-n(us)	1g	-n(us)
=12	=12	=12	=12	=12	=12	=12	=12
0G	De-	0Bn	De-	0d	De-	0g	de-
!	!	!	!	!LO:TX:t=P:problem:kreska pseudotaktowa	!	!	!
1BB	-us	1d	-us	1d	-(us)	1g	-(us)
=13	=13	=13	=13	=13	=13	=13	=13
0C	Sab-	0c	Sab-	0e	Sab-	0g	Sab-
1D	-ba-	1A	-ba-	1d	-ba-	1f	-ba-
=14	=14	=14	=14	=14	=14	=14	=14
!LO:TX:t=P:problem:kreska pseudotaktowa	!	!LO:TX:t=P:problem:kreska pseudotaktowa	!	!LO:TX:t=P:problem:kreska pseudotaktowa	!	!LO:TX:t=P:problem:kreska pseudotaktowa	!
0.GG	-oth	0.B	-oth	0.d	-oth	0.g	-oth
*	*Xij	*	*Xij	*	*Xij	*	*
=15	=15	=15	=15	=15	=15	=15	=15
1.G	Do-	1.Bn	Do-	1.d	Do-	1.g	Do-
2G\	-mi-	2B\	-mi-	2d\	-mi-	2g\	-mi-
1F	-nus	1d	-nus	1d	-n(us)	1a,	-n(us)
=16	=16	=16	=16	=16	=16	=16	=16
0G	De-	0Bn	De-	0d	de-	0g	de-
!	!	!LO:TX:t=P:problem:kreska pseudotaktowa	!	!LO:TX:t=P:problem:kreska pseudotaktowa	!	!	!
1C	-us	1G	-us	1c	-(us)	1e	-(us)
=17	=17	=17	=17	=17	=17	=17	=17
*	*ij	*	*ij	*	*ij	*	*
1.GG	Do-	1.B	Do-	1.d	Do-	0g	Sab-
2GG/	-mi-	2B\	-mi-	2d\	-mi-	.	.
!LO:TX:t=P:problem:kreska pseudotaktowa	!	!	!	!	!	!	!
1D	-nus	1A	-nus	1d	-nus	1f	-ba-
=18	=18	=18	=18	=18	=18	=18	=18
!	!	!	!	!	!	!LO:TX:t=P:problem:kreska pseudotaktowa	!
0AA	De-	0c	De-	0e	De-	0.a	-oth
!	!	!LO:TX:t=P:problem:kreska pseudotaktowa	!	!	!	!	!
1BB	-us	1B	-us	1d	-us	.	.
*	*Xij	*	*Xij	*	*Xij	*	*Xij
=19	=19	=19	=19	=19	=19	=19	=19
*col	*	*col	*	*col	*	*	*
1C	Sab-	1A	Sab-	1c	Sab-	0g	Sab-
0D	.	0A	-ba-	0A	-ba-	.	.
.	.	.	.	.	.	1f	-ba-
*Xcol	*	*Xcol	*	*Xcol	*	*	*
=20	=20	=20	=20	=20	=20	=20	=20
*yyM2/1	*	*yyM2/1	*	*yyM2/1	*	*yyM2/1	*
*yymet(c|)	*	*yymet(c|)	*	*yymet(c|)	*	*yymet(c|)	*
!LO:TX:t=P:problem:w źródle oznaczenie C| przekreślone	!	!LO:TX:t=P:problem:w źródle oznaczenie C| przekreślone	!	!LO:TX:t=P:problem:w źródle oznaczenie C| przekreślone	!	!LO:TX:t=P:problem:w źródle oznaczenie C| przekreślone	!
2C/	.	4A\	-oth	4A\	-oth	4g\	-oth
.	.	4c\	.	4c\	.	4e\	.
!	!	!LO:TX:t=P:problem:kreska pseudotaktowa	!	!	!	!	!
*	*	*	*	*	*ij	*	*ij
2GG/	.	2d\	Sab-	2B\	Sab-	1g	Sab-
1D	-ba-	1d	-ba-	1A	-ba-	.	.
.	.	.	.	.	.	2f#X\	-ba-
=21	=21	=21	=21	=21	=21	=21	=21
0GG;	-oth.	0d;	-oth.	0d;>	-oth	0g;>	-oth
*	*	*	*	*	*Xij	*	*Xij
!	!	!LO:LB:g=original	!	!LO:LB:g=original	!	!LO:LB:g=original	!
!LO:LB:g=original	!	!	!	!	!	!	!
=22||	=22||	=22||	=22||	=22||	=22||	=22||	=22||
*M3/1	*	*M3/1	*	*M3/1	*	*M3/1	*
!	!	!	!	!	!	!LO:TX:b:t=P:problem:# below	!
0D	Ple-	0d	Ple-	0d	PLE-	0f#X	Ple-
!LO:TX:t=P:problem:kreska pseudotaktowa	!	!	!	!LO:TX:t=P:problem:kreska pseudotaktowa	!	!	!
1D	-ni	1d	-ni	1A	-ni	1f#	-ni
=23	=23	=23	=23	=23	=23	=23	=23
!	!	!LO:TX:t=P:problem: nad główkami nut dopisane nazwy dźwięków	!	!	!	!	!
!	!	!LO:TX:t=P:problem: skreślone nuty	!	!	!	!	!
0C	Sunt	0e	Sunt	0c	Sunt	0g	Sunt
!LO:TX:t=P:problem:kreska pseudotaktowa	!	!	!	!LO:TX:t=P:problem:kreska pseudotaktowa	!	!	!
1AA	cae-	1f#X	cae-	1c	cae-	1a	cae-
=24	=24	=24	=24	=24	=24	=24	=24
0GG	-li	0g	-li	0B	-li	0d	-li
!	!	!	!	!LO:TX:t=P:problem:kreska pseudotaktowa	!	!LO:TX:t=P:problem:kreska pseudotaktowa	!
1GG	et	1g	et	1B	et	1d	et
=25	=25	=25	=25	=25	=25	=25	=25
0GG	ter-	0g	ter-	0B	ter-	0d	ter-
!LO:TX:t=P:problem:kreska pseudotaktowa	!	!	!	!LO:TX:t=P:problem:kreska pseudotaktowa	!	!	!
1GG	-ra	1g	-ra	1B	-ra	1d	-ra
=26	=26	=26	=26	=26	=26	=26	=26
!	!	!LO:TX:a:t=fis	!	!	!	!	!
1.D	glo-	1.f#X	glo-	1.A	glo-	1.d	glo-
2D/	-ri-	2f#\	-ri-	2A\	-ri-	2d\	-ri-
!	!	!LO:TX:t=P:problem:kreska pseudotaktowa	!	!LO:TX:t=P:problem:kreska pseudotaktowa	!	!	!
1D	-a	1d	-a	1d	-a	1f	-a
=27	=27	=27	=27	=27	=27	=27	=27
!	!	!LO:TX:a:t=e	!	!	!	!	!
0.AA	tu-	0.en	tu-	1d	tu-	0.e	tu-
!	!	!	!	!LO:TX:a:t=P:problem:# above	!	!	!
.	.	.	.	0c#X	.	.	.
=28	=28	=28	=28	=28	=28	=28	=28
*M2/1	*	*M2/1	*	*M2/1	*	*M2/1	*
*met(c|)	*	*met(c|)	*	*met(c|)	*	*met(c|)	*
!LO:TX:t=P:problem:kreska pseudotaktowa	!	!LO:TX:t=P:problem:kreska pseudotaktowa	!	!LO:TX:t=P:problem:kreska pseudotaktowa	!	!	!
1D	-a	1d	-a	1d	-a	1f,	-a
2GG/	O-	2B\	O-	2d\	O-	2g\	O-
4GG/	-ſan-	4B\	-ſan-	4d\	-ſan-	4g\	-ſan-
!LO:TX:t=P:problem:kreska pseudotaktowa	!	!LO:TX:t=P:problem:kreska pseudotaktowa	!	!LO:TX:t=P:problem:kreska pseudotaktowa	!	!	!
4C/	-na	4c\	-na	4e\	-na	4g\	-na
=29	=29	=29	=29	=29	=29	=29	=29
*	*	*	*	*	*ij	*	*
2GG/	O-	2B\	O-	2d\	O-	2g\	O-
4AA/	-ſan-	4A/	-ſan-	4c\	-ſan-	4e\	-ſan-
!LO:TX:t=P:problem:kreska pseudotaktowa	!	!LO:TX:t=P:problem:kreska pseudotaktowa	!	!	!	!LO:TX:t=P:problem:kreska pseudotaktowa	!
4AA/	-na	4A/	-na	4c\	-na	4e\	-na
*	*	*	*	*	*Xij	*	*
4BB/	in	4G/	in	4B\	in	4d\	in
4C/	ex-	4G/	ex-	4B\	ex-	4d\	ex-
2D/	-cel-	(4G/	-cel-	2A/	-cel-	2d\	-cel-
!	!	!LO:TX:b:t=P:problem:# below	!	!	!	!	!
.	.	4F#X/)	.	.	.	.	.
=30	=30	=30	=30	=30	=30	=30	=30
!LO:TX:t=P:problem:kreska pseudotaktowa	!	!LO:TX:t=P:problem:kreska pseudotaktowa	!	!LO:TX:t=P:problem:kreska pseudotaktowa	!	!LO:TX:t=P:problem:kreska pseudotaktowa	!
1GG	-ſis	1G	-ſis	1G	-ſis	1d	-sis
*	*ij	*	*ij	*	*ij	*	*ij
2GG/	O-	2B\	O-	2d\	O-	2g\	O-
4GG/	-ſan-	4B\	-ſan-	4d\	-ſan-	4g\	-ſan-
!LO:TX:t=P:problem:kreska pseudotaktowa	!	!	!	!LO:TX:t=P:problem:kreska pseudotaktowa	!	!	!
4C/	-na	4c\	-na	4e\	-na	4g\	-na
=31	=31	=31	=31	=31	=31	=31	=31
2GG/	O-	2B\	O-	2d\	O-	2g\	O-
4AA/	-ſan-	4A/	-ſan-	4c\	-ſan-	4e\	-ſan-
!LO:TX:t=P:problem:kreska pseudotaktowa	!	!LO:SIC:v:t=custos G	!	!LO:TX:t=P:problem:kreska pseudotaktowa	!	!LO:TX:t=P:problem:kreska pseudotaktowa	!
4AA/	-na	4A/	-na	4c\	-na	4e\	-na
!	!	!LO:LB:g=original	!	!	!	!	!
4BB/	in	4G/	in	4B\	in	4d\	in
4C/	ex-	4G/	ex-	4B\	ex-	4d\	ex-
2D/	-cel-	(4G/	-cel-	2A/	-cel-	2d\	-cel-
!	!	!LO:TX:b:t=P:problem:# below	!	!	!	!	!
.	.	4F#X/)	.	.	.	.	.
=32	=32	=32	=32	=32	=32	=32	=32
0GG;	-ſis	0G;	-ſis	0G;	-ſis	0d;>	-sis
*	*Xij	*	*Xij	*	*Xij	*	*Xij
!LO:LB:g=original	!	!	!	!LO:LB:g=original	!	!LO:LB:g=original	!
=33||	=33||	=33||	=33||	=33||	=33||	=33||	=33||
*M2/1	*	*M2/1	*	*M2/1	*	*M2/1	*
*met(c|)	*	*met(c|)	*	*met(c|)	*	*met(c|)	*
1.G	Be-	1.Bn	BE-	1.d	BE-	2.g\	Be-
.	.	.	.	.	.	8f\L	.
!	!	!	!	!	!	!LO:TX:t=P:problem:kreska pseudotaktowa	!
.	.	.	.	.	.	8e\J	.
.	.	.	.	.	.	2d\	.
!LO:TX:t=P:problem:kreska pseudotaktowa	!	!	!	!LO:TX:t=P:problem:kreska pseudotaktowa	!	!LO:TX:t=P:problem:kreska pseudotaktowa	!
2G\	-ne-	2d\	-ne-	2Bn\	-ne-	2g\	-ne-
=34	=34	=34	=34	=34	=34	=34	=34
2C/	-di-	2e\	-di-	2c\	-di-	2g\	-di-
!LO:TX:t=P:problem:kreska pseudotaktowa	!	!LO:TX:t=P:problem:kreska pseudotaktowa	!	!LO:TX:t=P:problem:kreska pseudotaktowa	!	!	!
2GG/	-ct(us)	2d\	-ct(us)	2B\	-ctus	2.g\	-ct(us)
2GG/	qui	2d\	qui	2B\	qui	.	.
.	.	.	.	.	.	4f\	.
!LO:TX:t=P:problem:kreska pseudotaktowa	!	!	!	!LO:TX:t=P:problem:kreska pseudotaktowa	!	!	!
2AA/	Ve-	2c\	ve-	2E/	ve-	1e\	qui
=35	=35	=35	=35	=35	=35	=35	=35
!	!	!LO:TX:t=P:problem:kreska pseudotaktowa	!	!	!	!	!
4BB/	-ni-	1B	-nit	2G/	-nit	.	.
4C/	.	.	.	.	.	.	.
!LO:TX:t=P:problem:kreska pseudotaktowa	!	!	!	!LO:TX:t=P:problem:kreska pseudotaktowa	!	!LO:TX:t=P:problem:kreska pseudotaktowa	!
2D/	-nit	.	.	2F/	in	2d\	Ve-
4GG/	in	2d\	in	2F/	no-	2g\	-nit
4GG/	No-	.	.	.	.	.	.
!LO:TX:t=P:problem:kreska pseudotaktowa	!	!	!	!	!	!	!
2AA/	-mi-	4c\	no-	2E/	-mi-	2.g\	in
!	!	!LO:TX:t=P:problem:kreska pseudotaktowa	!	!	!	!	!
.	.	4c\	-mi-	.	.	.	.
=36	=36	=36	=36	=36	=36	=36	=36
2.BB/	-ne	1B,	-ne	1E	-ne	.	.
.	.	.	.	.	.	4f\	no-
.	.	.	.	.	.	4g\	-mi-
!	!	!	!	!	!	!LO:TX:t=P:problem:kreska pseudotaktowa	!
4C/	.	.	.	.	.	4e\	-ne
2.D/	Do-	2.A/	Do-	(4A/	Do-	2.f#X\	Do-
.	.	.	.	2d\)	.	.	.
!LO:TX:t=P:problem:kreska pseudotaktowa	!	!	!	!	!	!	!
4D/	-mi-	4A/	-mi-	4d\	-mi-	4f#\	-mi-
=37	=37	=37	=37	=37	=37	=37	=37
!	!	!LO:TX:t=P:problem:kreska pseudotaktowa	!	!LO:TX:t=P:problem:kreska pseudotaktowa	!	!LO:SIC:v:t=custos g	!
1GG,	-ni	1G	-ni	1B	-ni	1g	-ni.
!	!	!	!	!	!	!LO:LB:g=original	!
2G\	Be-	2d\	Be-	2B\	Be-	2g\	BE-
4G\	-ne-	4d\	-ne-	4B\	-ne-	4g\	-ne-
!LO:TX:t=P:problem:kreska pseudotaktowa	!	!LO:TX:t=P:problem:kreska pseudotaktowa	!	!	!	!LO:TX:t=P:problem:kreska pseudotaktowa	!
4G\	-di-	4d\	-di-	4B\	-di-	4g\	-di-
=38	=38	=38	=38	=38	=38	=38	=38
!	!	!LO:TX:a:t=P:problem:# above	!	!	!	!	!
2.C/	-ct(us)	4c#X\	-ct(us)	4G/	-ct(us)	2.g\	-ct(us)
.	.	4c#\	q(ui)	4G/	q(ui)	.	.
.	.	2d\	ve-	2B\	ve-	.	.
!	!	!	!	!	!	!LO:TX:t=P:problem:kreska pseudotaktowa	!
4G\	qui	.	.	.	.	4g\	qui
!	!	!	!	!LO:TX:t=P:problem:zmiana wysokości nut w źródle	!	!	!
2D/	Ve-	4d\	-nit	4A/	-nit	2f\	ve-
!	!	!LO:SIC:v:t=custos d	!	!	!	!	!
.	.	4d\	in	4A/	in	.	.
!	!	!LO:LB:g=original	!	!	!	!	!
4D,/	-nit	2d\	no-	2A/	no-	4f\	-nit
!LO:TX:t=P:problem:kreska pseudotaktowa	!	!	!	!	!	!	!
4D/	in	.	.	.	.	4f\	in
=39	=39	=39	=39	=39	=39	=39	=39
2G\	No-	4d\	-mi-	4B/	-mi-	2g\	no-
.	.	4d\	-ne	4B/	-ne	.	.
4F\	-mi-	1d	Do-	1A	Do-	4d\	-mi-
4F\	-ne	.	.	.	.	4d\	-ne
!	!	!	!	!	!	!LO:TX:a:t=P:problem:# above	!
2A\	Do-	.	.	.	.	2f#X\	do-
!	!	!LO:TX:a:t=P:problem:# above	!	!	!	!	!
2AA/	-mi-	2c#X\	-mi-	2A/	-mi-	2e\	-mi-
=40	=40	=40	=40	=40	=40	=40	=40
!	!	!	!	!	!	!LO:TX:a:t=P:problem:# above	!
1D	-ni.	1d	-ni	1A	-ni	1f#X	-ni
!LO:LB:g=original	!	!	!	!	!	!	!
=41	=41	=41	=41	=41	=41	=41	=41
*M3/1	*	*M3/1	*	*M3/1	*	*M3/1	*
0GG	O-	0d	O-	0B	O-	0g	O-
!	!	!	!	!LO:SIC:v:t=custos d	!	!	!
!	!	!LO:TX:t=P:problem:kreska pseudotaktowa	!	!LO:TX:t=P:problem:kreska pseudotaktowa	!	!	!
1GG	-ſan-	1B	-ſan-	1B	-ſan-	1g	-ſan-
!	!	!	!	!LO:LB:g=original	!	!	!
=42	=42	=42	=42	=42	=42	=42	=42
0GG	-na	0G	-na	1d	-na	0g	-na
.	.	.	.	1d	.	.	.
1GG	in	1B	in	1d	in	1g	in
=43	=43	=43	=43	=43	=43	=43	=43
0GG	ex-	0d	ex-	0B	ex-	0g	ex-
!	!	!	!	!LO:N:vis=1	!	!	!
1C	-cel-	1e	-cel-	2c\	-cel-	1g	-cel-
!	!	!	!	!LO:N:vis=1	!	!	!
.	.	.	.	2A\	.	.	.
=44	=44	=44	=44	=44	=44	=44	=44
!LO:TX:t=P:problem:kreska pseudotaktowa	!	!LO:TX:t=P:problem:kreska pseudotaktowa	!	!	!	!LO:TX:t=P:problem:kreska pseudotaktowa	!
0.GG	-ſis	0.d	-ſis	0.B	-ſis	0.g	-ſis
=45	=45	=45	=45	=45	=45	=45	=45
*	*ij	*	*ij	*	*ij	*	*ij
0G	O-	0d	O-	0B	O-	0g	O-
!	!	!	!	!LO:TX:t=P:problem:kreska pseudotaktowa	!	!	!
1G	-ſan-	1B	-ſan-	1B	-ſan-	1g	-ſan-
=46	=46	=46	=46	=46	=46	=46	=46
0GG	-na	0G	-na	0d	-na	0g	-na
1GG	in	1B	in	1d	in	1g	in
=47	=47	=47	=47	=47	=47	=47	=47
0G	ex-	0d	ex-	0B	ex-	0g	ex-
!	!	!	!	!	!	!LO:SIC:v:t=custos g	!
1C	-cel-	1e	-cel-	1c	-cel-	1g	-cel-
!	!	!	!	!	!	!LO:LB:g=original	!
=48	=48	=48	=48	=48	=48	=48	=48
!LO:TX:t=P:problem:kreska pseudotaktowa	!	!LO:TX:t=P:problem:kreska pseudotaktowa	!	!LO:TX:t=P:problem:kreska pseudotaktowa	!	!LO:TX:t=P:problem:kreska pseudotaktowa	!
0.GG	-ſis	0.d	-ſis	0.B	-ſis	0.g	-ſis
*	*Xij	*	*Xij	*	*	*	*
=49	=49	=49	=49	=49	=49	=49	=49
0G	O-	0d	O-	0d	O-	0g	O-
1A	-ſan-	1c	-ſan-	1A	-ſan-	1e	-ſan-
=50	=50	=50	=50	=50	=50	=50	=50
0G	-na	0B	-na	0B	-na	0g	-na
!	!	!	!	!LO:TX:t=P:problem:kreska pseudotaktowa	!	!	!
1GG	in	1d	in	1B	in	1g	in
=51	=51	=51	=51	=51	=51	=51	=51
0C	ex-	0c	ex-	0A	ex-	0g	ex-
!	!	!LO:TX:t=P:problem:kreska pseudotaktowa	!	!	!	!	!
1D	-cel-	1A	-cel-	1A	-cel-	1f#X	-cel-
=52	=52	=52	=52	=52	=52	=52	=52
0GG,	-ſis	0B	-ſis	0G	-ſis	0g	-ſis
!	!	!LO:TX:t=P:problem:kreska pseudotaktowa	!	!	!	!	!
!LO:TX:t=P:problem:kreska pseudotaktowa	!	!LO:SIC:v:t=custos d	!	!LO:TX:t=P:problem:kreska pseudotaktowa	!	!LO:TX:t=P:problem:kreska pseudotaktowa	!
*	*	*	*	*	*Xij	*	*ij
!	!	!LO:LB:g=original	!	!	!	!	!
1G	O-	1B	O-	1B	O-	1g	O-
=53	=53	=53	=53	=53	=53	=53	=53
0F	-ſan-	0d	-ſan-	0A	-ſan-	0a	-ſan-
1G	-na	1B	-na	1B	-na	1g	-na
=54	=54	=54	=54	=54	=54	=54	=54
0G	in	0G	in	0d	in	0g	O-
!LO:TX:t=P:problem:kreska pseudotaktowa	!	!LO:TX:t=P:problem:kreska pseudotaktowa	!	!	!	!	!
1G	ex-	1B	ex-	1d	ex-	1g	-ſan-
=55	=55	=55	=55	=55	=55	=55	=55
1.GG	-cel-	0B	-cel-	0d	-cel-	1g	-na
*	*	*	*	*	*	*	*Xij
.	.	.	.	.	.	1.d	O-
2AA/	.	.	.	.	.	.	.
!	!	!	!	!LO:TX:t=P:problem:kreska pseudotaktowa	!	!	!
2BB/	.	1B	-ſis	1G	-ſis	.	.
!LO:SIC:v:t=custos D	!	!	!	!	!	!	!
!LO:TX:t=P:problem:kreska pseudotaktowa	!	!	!	!	!	!LO:TX:t=P:problem:kreska pseudotaktowa	!
2C/	.	.	.	.	.	2e\	.
!LO:LB:g=original	!	!	!	!	!	!	!
=56	=56	=56	=56	=56	=56	=56	=56
0D	.	0A	in	1r	.	2f\	-ſan-
.	.	.	.	.	.	2e\	.
!	!	!	!	!LO:TX:t=P:problem:tekst podłożono zgodnie z dopisanym fragmentem	!	!	!
*	*	*	*	*	*ij	*	*
.	.	.	.	1A	o-	2f\	.
.	.	.	.	.	.	2g\	-na
!LO:TX:t=P:problem:kreska pseudotaktowa	!	!LO:TX:t=P:problem:kreska pseudotaktowa	!	!	!	!LO:TX:t=P:problem:kreska pseudotaktowa	!
1AA	.	1c	ex-	1A	.	1a	in
=57	=57	=57	=57	=57	=57	=57	=57
*	*	*col	*	*lig	*	*	*
!	!	!	!	!LO:N:vis=0	!	!	!
1BB	.	1B	-cel-	1d	-ſan-	0g	ex-
!	!	!	!	!LO:N:vis=0	!	!	!
1C	.	0A	.	1A	.	.	.
*	*	*	*	*Xlig	*	*	*
1D	.	.	.	1c	.	1f	-cel-
*	*	*Xcol	*	*	*	*	*
=58	=58	=58	=58	=58	=58	=58	=58
!LO:TX:t=P:problem:kreska pseudotaktowa	!	!LO:TX:t=P:problem:kreska pseudotaktowa	!	!LO:TX:t=P:problem:kreska pseudotaktowa	!	!LO:TX:t=P:problem:kreska pseudotaktowa	!
0.GG	-ſis	0.G	-ſis	0.B	-na	0.g	-ſis
*	*	*	*Xij	*	*	*	*ij
=59	=59	=59	=59	=59	=59	=59	=59
1r	.	0d	O-	0d	o-	0g	O-
1r	.	.	.	.	.	.	.
!LO:TX:t=P:problem:kreska pseudotaktowa	!	!	!	!LO:SIC:v:t=custos B	!	!	!
1G	O-	1B	-ſan-	1d	-ſan-	1g	-ſan-
!	!	!	!	!LO:LB:g=original	!	!	!
=60	=60	=60	=60	=60	=60	=60	=60
0G	-ſan-	0G	-na	0B	-na	0g	-na
!LO:TX:t=P:problem:kreska pseudotaktowa	!	!LO:TX:t=P:problem:kreska pseudotaktowa	!	!	!	!	!
1G	-na	1B	in	1.G	o-	1g	in
=61	=61	=61	=61	=61	=61	=61	=61
1.GG	in	0B	ex-	.	.	1g	ex-
.	.	.	.	2A/	.	.	.
.	.	.	.	2B\	.	1.d	-cel-
2AA/	.	.	.	2c\	.	.	.
*	*	*	*	*col	*	*	*
!	!	!	!	!LO:TX:t=P:problem:kreska pseudotaktowa	!	!	!
2BB/	.	1B	-cel-	1d	.	.	.
!	!	!	!	!	!	!LO:SIC:v:t=custos f	!
2C/	.	.	.	.	.	2e\	.
!	!	!	!	!	!	!LO:LB:g=original	!
=62	=62	=62	=62	=62	=62	=62	=62
*	*	*	*	*Xcol	*	*	*
0D	.	0A	.	0d	-ſan-	2f\	.
.	.	.	.	.	.	2e\	.
.	.	.	.	.	.	2f\	.
.	.	.	.	.	.	2g\	.
!LO:TX:t=P:problem:kreska pseudotaktowa	!	!LO:TX:t=P:problem:kreska pseudotaktowa	!	!LO:TX:t=P:problem:kreska pseudotaktowa	!	!	!
1AA	ex-	1c	.	1e	-na	1a	.
=63	=63	=63	=63	=63	=63	=63	=63
*	*	*col	*	*	*	*	*
1BB	-cel-	1B	.	1d	in	0g	.
1C	.	0A	.	1e	ex-	.	.
1D	.	.	.	1d	-cel-	1f	.
*	*	*Xcol	*	*	*	*	*
=64	=64	=64	=64	=64	=64	=64	=64
*M2/1	*	*M2/1	*	*M2/1	*	*M2/1	*
*met(c|)	*	*met(c|)	*	*met(c|)	*	*met(c|)	*
2GG,/	-ſis	1.G	-ſis	2d\	-ſis	2g\	-ſis
*	*	*	*	*	*	*	*Xij
1C	in	.	.	2d\	ex-	1e	in
.	.	.	.	[1d	-cel-	.	.
2BB/	ex-	4G/	in	.	.	2g\	ex-
!	!	!LO:TX:t=P:problem:kreska pseudotaktowa	!	!	!	!	!
.	.	4G/	ex-	.	.	.	.
=65	=65	=65	=65	=65	=65	=65	=65
1C	-cel-	1G	-cel-	1d]	.	2.e\	-cel-
.	.	.	.	.	.	8d\L	.
.	.	.	.	.	.	8c\J	.
!LO:N:vis=0	!	!LO:N:vis=0	!	!LO:N:vis=0	!	!LO:N:vis=0	!
1GG;	-ſis.	1G;	-ſis	1B	-ſis	1d;	-ſis
*	*	*	*	*	*Xij	*	*
==	==	==	==	==	==	==	==
*-	*-	*-	*-	*-	*-	*-	*-
!!!system-decoration: [(s1,s2,s3,s4)]
!!!ENC: Andrzej Kubiczek
!!!END: 2022-01-17
!!!ENC: Jan Barakat
!!!END: 2022-01-21
!!!RDF**kern: < = above
!!!RDF**kern: > = below
